svg/Outline/group.svg

<svg viewBox="0 0 24 24" xmlns="http://www.w3.org/2000/svg" width="24" height="24"><path d="M8 14.15a7.2 7.2 0 0 1 4.14 1.3l.22.15a6.3 6.3 0 0 1 2.16 2.98l.08.26.03.09a.9.9 0 0 1-1.72.5l-.03-.09-.06-.18a4.5 4.5 0 0 0-1.56-2.13l-.16-.11a5.4 5.4 0 0 0-6.03-.11l-.16.1a4.5 4.5 0 0 0-1.78 2.43l-.03.09a.9.9 0 0 1-1.7-.6l.09-.25a6.4 6.4 0 0 1 2.38-3.14A7 7 0 0 1 8 14.15m9.44.43c1.2 0 2.35.43 3.28 1.21l.18.15a6 6 0 0 1 1.7 2.94.9.9 0 0 1-1.74.42 4 4 0 0 0-1.07-1.92l-.22-.2a3.3 3.3 0 0 0-3.24-.6.9.9 0 0 1-.63-1.7q.84-.3 1.74-.3"/><path fill-rule="evenodd" d="M17.63 6.1a3.74 3.74 0 0 1 3.55 3.74v.2a3.74 3.74 0 0 1-3.74 3.54h-.2a3.74 3.74 0 0 1-3.53-3.55v-.2a3.74 3.74 0 0 1 3.73-3.73zm-.2 1.8a1.94 1.94 0 1 0 .01 3.88 1.94 1.94 0 0 0 0-3.88M8.26 2.54A5 5 0 0 1 13 7.53v.26a5 5 0 0 1-5 4.73h-.25a5 5 0 0 1-4.73-4.73v-.26a5 5 0 0 1 4.98-5zM8 4.34a3.2 3.2 0 1 0 0 6.39 3.2 3.2 0 0 0 0-6.4" clip-rule="evenodd"/></svg>

<svg viewBox="0 0 24 24" xmlns="http://www.w3.org/2000/svg" width="24" height="24"><path d="M8 14.15A7.2 7.2 0 0 1 12.14 15.45L12.36 15.6A6.3 6.3 0 0 1 14.52 18.58L14.63 18.93A.9 .9 0 0 1 12.91 19.43L12.82 19.16A4.5 4.5 0 0 0 11.26 17.03L11.1 16.92A5.4 5.4 0 0 0 5.07 16.81L4.91 16.91A4.5 4.5 0 0 0 3.13 19.34L3.1 19.43A.9 .9 0 0 1 1.4 18.83L1.49 18.58A6.4 6.4 0 0 1 3.87 15.44A7 7 0 0 1 8 14.15M17.44 14.58c1.2 0 2.35.43 3.28 1.21l.18.15a6 6 0 0 1 1.7 2.94.9.9 0 0 1-1.74.42 4 4 0 0 0-1.07-1.92l-.22-.2a3.3 3.3 0 0 0-3.24-.6.9.9 0 0 1-.63-1.7q.84-.3 1.74-.3"/><path fill-rule="evenodd" d="M17.63 6.1a3.74 3.74 0 0 1 3.55 3.74v.2a3.74 3.74 0 0 1-3.74 3.54h-.2a3.74 3.74 0 0 1-3.53-3.55v-.2a3.74 3.74 0 0 1 3.73-3.73zm-.2 1.8a1.94 1.94 0 1 0 .01 3.88 1.94 1.94 0 0 0 0-3.88M8.26 2.54A5 5 0 0 1 13 7.53v.26a5 5 0 0 1-5 4.73h-.25a5 5 0 0 1-4.73-4.73v-.26a5 5 0 0 1 4.98-5zM8 4.34a3.2 3.2 0 1 0 0 6.39 3.2 3.2 0 0 0 0-6.4" clip-rule="evenodd"/></svg>
